X:66
T:Lord MacDonald's
S:Nial Jinks
R:Reel
O:Scotland
M:4/4
K:D
A3B AFdF | AFdF eEEG | A^GAB AFdF | \
E/F/GFE FDDF :: Adfd edfd | Adfd edBd | \
Adfd edfd | ABAG FDDF | Adfd edfd | \
Adfd edBd | fedc dcBA | B/c/dce fdd2 :|**
